T: Gander In The Pratie Hole, The
M: 6/8
L: 1/8
K: Dmaj
FAD FAF | GFG EE/F/G | FAD FAD | GED D2 E |FAD F2 A | GFG E2 g | fed ecA | GED D2 :|Add ded | cAB cAG | Ad/c/d ded | cAB c2 B |Add ded | cAB cde | fed ecA | GED D2 :|~ | fed e^cA | GED D2 :|
